!!!!SEGMENT: pl-kk--kk-i-267--001_anonim--rorate-caeli.krn
!!!cenid: 16xx:721
!!!COM: Anonim
!!!COM-rismID: pe30004985
!!!CDT:
!!!CNT:
!!!OTL: Rorate caeli
!!!PDT:
!!!AGN: Sacred
!!!SMS-siglum: PL-Kk
!!!SMS-shelfmark: Kk.I.267
!!!SMS-shelfwork: 001 W
!!!SMS-variant:
!!!SMS-altvar:
!!!NIFC-rismSourceID: 1001134552
!!!NIFC-rismChildID: 1001134548
!!!NIFC-islandoraID: pl-kk:15916
!!!URL-pdf-islandora: https://repozytorium.nifc.pl/islandora/object/pl-kk%3A15916/datastream/PDF/view
!!!URL-scan:
!!!ONB-nifc: UWAGA: utwory w zbiorze: 1. Rorate caeli, 2. Gaude Maria Virgo
!!!AIN: 1 alto 2 empty 1 tenor 1 vox
!!!key:
**kern	**text	**text	**kern	**text	**kern	**text	**kern	**text	**kern	**text
*part5	*part5	*part5	*part4	*part4	*part3	*part3	*part2	*part2	*part1	*part1
*staff5	*staff5	*staff5	*staff4	*staff4	*staff3	*staff3	*staff2	*staff2	*staff1	*staff1
*Iempty	*	*	*Iempty	*	*Itenor	*	*Ialto	*	*Ivox	*
*I"Baſso Ripieno.	*	*	*I"Baſso.	*	*I"Tenore	*	*I"Alto.	*	*I"Canto.	*
*I'B rip	*	*	*I'B	*	*I'T	*	*I'A	*	*I'S	*
*clefF4	*	*	*clefF4	*	*clefC4	*	*clefC3	*	*clefC1	*
*k[b-e-]	*	*	*k[b-e-a-]	*	*k[b-e-a-]	*	*k[b-e-a-]	*	*k[b-e-a-]	*
*	*	*	*E-:	*	*E-:	*	*E-:	*	*E-:	*
*M2/2	*	*	*M2/2	*	*M2/2	*	*M2/2	*	*M2/2	*
*met(c|)	*	*	*met(c|)	*	*met(c|)	*	*met(c|)	*	*met(c|)	*
=1	=1	=1	=1	=1	=1	=1	=1	=1	=1	=1
!LO:TX:t=P:problem=znaki przykluczowe [B- BB- E-]	!	!	!	!	!	!	!	!	!	!
!LO:TX:a:i:t=à Capella.	!	!	!LO:TX:t=P:problem=znaki przykluczowe [BB- E- A- B-]	!	!LO:TX:t=P:problem=znaki przykluczowe [A- B- e-]	!	!LO:TX:t=P:problem=znaki przykluczowe [B- e- a-]	!	!	!
!LO:TX:a:i:t=Lente	!	!	!LO:TX:i:a:t=Lentè	!	!LO:TX:a:i:t=à Capella	!	!LO:TX:a:i:t=à Capella	!	!LO:TX:t=P:problem=znaki przykluczowe [e- a- b- ee-]	!
!LO:TX:t=P:problem=inicjał w źródle przed kluczem na pięciolinii	!	!	!LO:TX:t=P:problem=inicjał w źródle przed kluczem na pięciolinii	!	!LO:TX:t=P:problem=inicjał w źródle przed kluczem na pięciolinii	!	!LO:TX:t=P:problem=inicjał w źródle przed kluczem na pięciolinii	!	!LO:TX:t=P:problem=inicjał w źródle przed kluczem na pięciolinii	!
!	!	!	!	!	!	!	!LO:N:vis=0	!	!LO:N:vis=0	!
4r	.	.	4r	.	1r	.	0r	.	0r	.
4E-\	Ro-	.	4E-\	Ro-	.	.	.	.	.	.
4E-\	-ra-	.	4E-\	-ra-	.	.	.	.	.	.
4E-\	-te	.	4E-\	-te	.	.	.	.	.	.
=2	=2	=2	=2	=2	=2	=2	=2	=2	=2	=2
2D/	cae-	.	2D/	Cae-	4r	.	.	.	.	.
.	.	.	.	.	4B-\	Ro-	.	.	.	.
2BB-/	-li	.	2BB-/	-li	4B-\	-ra-	.	.	.	.
.	.	.	.	.	4B-\	-te	.	.	.	.
=3	=3	=3	=3	=3	=3	=3	=3	=3	=3	=3
4E-\	cae-	.	4E-\	Cae-	2G/	Cae-	4r	.	1r	.
4F\	.	.	4F\	.	.	.	4e-\	Ro-	.	.
!	!	!	!	!	!LO:TX:t=P:global:problem=oddech jako rozdzielacz słów	!	!	!	!	!
4G\	.	.	4G\	.	2E-,/	-li	4e-\	-ra-	.	.
4A-X\	.	.	4A-\	.	.	.	4e-\	-te	.	.
=4	=4	=4	=4	=4	=4	=4	=4	=4	=4	=4
*	*	*	*	*	*	*	*2\right	*	*	*
4B-\	.	.	4B-\	.	4.F/	de-	2d\	Cae-	4r	.
!LO:TX:t=P:global:problem=oddech jako rozdzielacz słów	!	!	!LO:TX:t=P:global:problem=oddech jako rozdzielacz słów	!	!	!	!	!	!	!
4F,\	-li	.	4F,\	-li	.	.	.	.	4b-\	Ro-
.	.	.	.	.	8F/	-su-	.	.	.	.
4B-\	de-	.	4B-\	de-	4F,/	-per	2B-/	-li	4b-\	-ra-
4A-X\	.	.	4A-\	.	4F/	et	.	.	4b-\	-te
=5	=5	=5	=5	=5	=5	=5	=5	=5	=5	=5
4G\	.	.	4G\	.	(>4B-\	nu-	(>4e-\	Cae-	(>4b-\	Cae-
4F\	.	.	4F\	.	4A-\)	.	4f\)	.	4dd\)	.
*2\right	*	*	*2\right	*	*2\right	*	*	*	*2\right	*
!	!	!	!	!	!	!	!	!	!LO:TX:t=P:global:problem=oddech jako rozdzielacz słów	!
[<2E-\	.	.	[<2E-\	.	(<4G/	-bes	2g\	-li	2ee-,\	-li
.	.	.	.	.	4B-/)	.	.	.	.	.
=6	=6	=6	=6	=6	=6	=6	=6	=6	=6	=6
4E-\]	.	.	4E-\]	.	(>2.A-X\	plu-	2.f\	de-	(>4cc\	de-
8D/L	.	.	8D/L	.	.	.	.	.	8dd\L	.
8C/J	.	.	8C/J	.	.	.	.	.	8ee-\J)	.
4.D/	-su-	.	4.D/	.	.	.	.	.	4ff\	.
.	.	.	.	.	4B-\)	.	4f\	-su-	4ff\	-su-
8D/	-per	.	8D/	-su-	.	.	.	.	.	.
=7	=7	=7	=7	=7	=7	=7	=7	=7	=7	=7
!	!	!	!	!	!	!	!LO:TX:t=P:global:problem=oddech jako rozdzielacz słów	!	!	!
4E-,\	et	.	4E-,\	-per	4G,/	-ant	4e-,\	-per	4ee-,\	-per
4E-\	nu-	.	4E-\	et	4B-\	et	4g\	et	4b-\	et
4E-\	-bes	.	4E-\	nu-	4B-\	nu-	4g\	nu-	4g/	nu-
*	*	*	*custos:C	*	*custos:c	*	*	*	*	*
4D/	.	.	4D/	-bes	4Bn\	-bes	4f\	-bes	4dd\	-bes
!LO:LB:g=original	!	!	!LO:LB:g=original	!	!LO:LB:g=original	!	!	!	!	!
=8	=8	=8	=8	=8	=8	=8	=8	=8	=8	=8
(<4C/	plu-	.	(<4C/	plu-	4c\	plu-	4e-\	plu-	4ee-\	plu-
4D/)	.	.	4D/)	.	8Bn\L	.	4f\	-ant	4dd\	-ant
!	!	!	!	!	!LO:SIC:v:s=8An	!	!	!	!	!
.	.	.	.	.	8A-\J	.	.	.	.	.
(<4E-/	-ant	.	(>4E-\	-ant	4G/	.	4g\	.	2cc\	Jus-
4F/)	.	.	4F\)	.	4An/	.	8f\L	.	.	.
.	.	.	.	.	.	.	8e-\J	Jus-	.	.
=9	=9	=9	=9	=9	=9	=9	=9	=9	=9	=9
*	*	*	*	*	*	*	*custos:g	*	*	*
4G\	Jus-	.	4G\	Jus-	2Bn,\	-ant	2d,\	-tum	4bn,\	-tum
4G,\	-tu[m]	.	4G,\	-tum	.	.	.	.	4g/	et
!	!	!	!	!	!	!	!LO:LB:g=original	!	!	!
4E-\	nu-	.	4E-\	nu-	4e-X\	nu-	4g\	nu-	4cc\	nu-
4C/	-bes	.	4C/	-bes	4e-\	-bes	4g\	-bes	4cc\	-bes
!	!	!	!	!	!	!	!	!	!LO:LB:g=original	!
=10	=10	=10	=10	=10	=10	=10	=10	=10	=10	=10
4A-X\	plu-	.	4A-\	plu-	4c\	plu-	4e-\	plu-	4cc\	plu-
4F,\	-ant	.	4F\	-ant	4d\	-ant	4f\	-ant	4a-X\	-ant
4G\	.	.	4G\	.	2Bn\	Jus-	2d\	Jus-	2g/	Jus-
4GG/	.	.	4GG/	Jus-	.	.	.	.	.	.
=11	=11	=11	=11	=11	=11	=11	=11	=11	=11	=11
2C/	Juſtu[m]	.	4C/	-tum	4c\	-tum	4c,/	-tum	4g/	-tum
.	.	.	4r	.	4r	.	4c/	.	4r	.
2r	.	.	2r	.	4r	.	4g\	ape-	2r	.
.	.	.	.	.	4G/	a-	4g\	-ri-	.	.
=12	=12	=12	=12	=12	=12	=12	=12	=12	=12	=12
2r	.	.	2r	.	4c\	-pe-	4e-\	-atur	1r	.
.	.	.	.	.	4c\	-ria-	4e-\	.	.	.
4r	.	.	4r	.	4c\	-tur	2e-\	ter-	.	.
4C/	a-	.	4C/	a-	4c\	.	.	.	.	.
=13	=13	=13	=13	=13	=13	=13	=13	=13	=13	=13
4G\	-pe-	.	4G\	-peri-	4c\	ter-	4d,\	-ra	2r	.
4G\	-ri-	.	4G\	-a-	8B-\L	.	4d\	a-	.	.
!	!	!	!	!	!LO:TX:t=P:♭above:problem	!	!	!	!	!
.	.	.	.	.	8A-X\J	.	.	.	.	.
4G\	-a-	.	4G\	-tur	[<2B-\	.	4d\	-pe-	4r	.
4F\	-t[ur]	.	4F\	.	.	.	4d\	-ri-	4g/	ape-
=14	=14	=14	=14	=14	=14	=14	=14	=14	=14	=14
2En\	ter-	.	2En\	ter-	4B-X\]	.	2.c/	-atur	4cc\	-ri-
.	.	.	.	.	8A-X\L	.	.	.	4cc\	-a-
.	.	.	.	.	8G\J	.	.	.	.	.
*	*	*	*	*	*custos:G	*	*	*	*	*
2F\	.	.	2F\	.	2A-X/	.	.	.	4cc\	-tur
.	.	.	.	.	.	.	4d\	.	4a-X\	.
!	!	!	!	!	!LO:LB:g=original	!	!	!	!	!
=15	=15	=15	=15	=15	=15	=15	=15	=15	=15	=15
4C/	.	.	(<4C/	.	2.G/	.	4e-\	ter-	(>4g\	ter-
4BB-/	.	.	4BB-/)	.	.	.	(>4d\	.	4dd\)	.
*custos:GG	*	*	*	*	*	*	*	*	*	*
2AA-X/	.	.	2AA-/	.	.	.	4c\)	.	4ee-\	.
.	.	.	.	.	4F/	.	4d\	.	4cc\	.
!LO:LB:g=original	!	!	!	!	!	!	!	!	!	!
=16	=16	=16	=16	=16	=16	=16	=16	=16	=16	=16
2GG,</	-ra	.	2GG,/	-ra	2G,/	-ra	2Bn,/	-ra	2dd,\	-ra
*	*	*	*custos:B	*	*	*	*custos:f	*	*	*
2E-\	et	.	2E-\	et	4B-\	et	2g\	et	2ee-\	et
.	.	.	.	.	4c\	.	.	.	.	.
!	!	!	!LO:LB:g=original	!	!	!	!LO:LB:g=original	!	!	!
=17	=17	=17	=17	=17	=17	=17	=17	=17	=17	=17
2.B-\	ger-	.	2.B-\	ger-	2.d\	ger-	2.f\	ger-	2.dd\	ger-
4B-\	-mi-	.	4B-\	-mi-	4d\	-mi-	4f\	-mi-	4b-\	-mi-
=18	=18	=18	=18	=18	=18	=18	=18	=18	=18	=18
2B-,\	-net	.	2B-,\	-net	2d,\	-net	2f,\	-net	2dd,\	-net
2G\	Sal-	.	2G\	Sal-	2B-\	Sal-	2g\	Sal-	2ee-\	Sal-
!	!	!	!	!	!	!	!	!	!LO:LB:g=original	!
=19	=19	=19	=19	=19	=19	=19	=19	=19	=19	=19
2A-X\	.	.	2A-X\	.	2c\	.	(>4e-\	.	1ee-	-va-
.	.	.	.	.	.	.	4f\)	.	.	.
2G\	-vato-	.	2G\	-va-	2B-\	-va-	2g\	-va-	.	.
=20	=20	=20	=20	=20	=20	=20	=20	=20	=20	=20
2F\	.	.	2F\	-to-	(>2c\	-to-	1a-X	-torem	2ee-\	-to-
2BB-/	.	.	2BB-/	.	2d\)	-rem	.	.	2dd\	.
=21	=21	=21	=21	=21	=21	=21	=21	=21	=21	=21
2E-,\	-rem	.	2E-,\	-rem	2e-,\	.	2g,\	.	2b-,\	-rem
*	*ij	*	*	*	*	*	*	*	*	*
[<2AA-X/	Sal-	a-	[<2AA-X/	Sal-	2c\	Sal-	2e-\	Sal-	2a-X\	Sal-
=22	=22	=22	=22	=22	=22	=22	=22	=22	=22	=22
2AA-/]	.	-lle-	2AA-/]	.	2d\	.	2f\	-va-	(>2.b-\	.
4GG/	-va-	.	4GG/	-va-	2e-\	-va-	2g\	-to-	.	.
4AA-y/	.	.	4AA-/	-to-	.	.	.	.	4cc\)	-va-
=23	=23	=23	=23	=23	=23	=23	=23	=23	=23	=23
1BB-	-to-	-lu-	1BB-	.	4e-\	-to-	1f	-rem.	1b-	-torem.
.	.	.	.	.	8d\L	.	.	.	.	.
.	.	.	.	.	8c\J	.	.	.	.	.
.	.	.	.	.	2d\	.	.	.	.	.
=24-	=24	=24	=24	=24	=24	=24	=24	=24	=24	=24
!LO:N:vis=0	!	!	!LO:N:vi=0	!	!	!	!LO:N:vis=0	!	!LO:N:vis=0	!
0E-;>	-rem	-ia	0E-;>	-rem.	0e-;>	-rem.	0e-;>	.	0g;>	.
*	*Xij	*	*	*	*	*	*	*	*	*
=25	=25	=25	=25	=25	=25	=25	=25	=25	=25	=25
.	.	.	.	.	.	.	.	.	.	.
!LO:LB:g=original	!	!	!LO:LB:g=original	!	!LO:LB:g=original	!	!LO:LB:g=original	!	!LO:LB:g=original	!
=26||	=26||	=26||	=26||	=26||	=26||	=26||	=26||	=26||	=26||	=26||
*M3/4	*	*	*M3/4	*	*M3/4	*	*M3/4	*	*M3/4	*
*rscale:2	*	*	*	*	*	*	*	*	*	*
!LO:TX:t=P:problem=metrum 3/2 i 2 razy dłuższe wartości (do końca utworu)	!	!	!	!	!	!	!	!	!	!
4E-\	Be-	.	4E-\	Be-	4B-\	Be-	4g\	Be-	4ee-\	Be-
4D\	-ne-	.	4D\	-ne-	4B-\	-ne-	4f\	-ne-	4b-\	-ne-
4E-\	-di-	.	4E-\	-di-	4B-\	-di-	4g\	-di-	4ee-\	-di-
=27	=27	=27	=27	=27	=27	=27	=27	=27	=27	=27
2D\	-xis-	.	2D/	-xis-	2B-\	-xis-	2f\	-xisti	2b-\	-xis-
4BB-/	-ti	.	4BB-/	-ti	4B-\	-ti	4f\	.	4dd,\	-ti
=28	=28	=28	=28	=28	=28	=28	=28	=28	=28	=28
4.E-\	Do-	.	4.E-\	Do-	4.B-\	Do-	4.g\	Do-	4.ee-\	Do-
8F\	-mi-	.	8F\	-mi-	8A-\	-mi-	8f\	-mi-	8dd\	-mi-
4G\	-ne	.	4G\	-ne	4B-\	-ne	4e-\	-ne	4ee-\	-ne
=29	=29	=29	=29	=29	=29	=29	=29	=29	=29	=29
4A-X\	ter-	.	4A-\	.	4c\	ter-	4e-\	ter-	4cc\	ter-
4F\	.	.	4F,\	ter-	4c,\	-ram	4e-,\	-ram	4ff,\	-ram
4B-\	-ra[m]	.	4B-\	-ram	4F/	.	4d\	.	4dd\	tu-
=30	=30	=30	=30	=30	=30	=30	=30	=30	=30	=30
4E-\	-tuam	.	4E-\	tuam	4G/	-tuam	4e-\	-tuam	4b-,\	-am
4r	.	.	4r	.	4r	.	4r	.	4b-\	a-
4r	.	.	4r	.	4r	.	4r	.	4a-X\	-ver-
=31	=31	=31	=31	=31	=31	=31	=31	=31	=31	=31
4r	.	.	4r	.	4r	.	4r	.	4g/	-ti-
4E-\	a-	.	4E-\	a-	4B-\	a-	4g\	a-	4b-X,\	-ſti
*	*	*	*	*	*	*	*	*	*	*ij
4D\	-ver-	.	4D/	-ver-	4Bn\	-ver-	4f\	-ver-	8dd\	a-
.	.	.	.	.	.	.	.	.	8dd\	-ver-
=32	=32	=32	=32	=32	=32	=32	=32	=32	=32	=32
2C/	-ti-	.	2C/	-tisti	2G/	-ti-	2e-\	-ti-	2g/	-ti-
4BBn/	-ſti	.	4BBn/	.	4G/	-sti	4d\	-ſti	4bn\	-ſti
*	*	*	*	*	*	*	*	*	*	*Xij
=33	=33	=33	=33	=33	=33	=33	=33	=33	=33	=33
4C/	cap-	.	4C/	Cap-	8G/L	Ca-	4e-\	Cap-	4ee-\	Cap-
.	.	.	.	.	8A-X/J	.	.	.	.	.
4G\	-ti-	.	4G\	-ti-	4B-\	-pti-	4e-\	-ti-	4b-\	-ti-
*custos:A-	*	*	*	*	*	*	*	*	*	*
4G\	-vi-	.	4G\	-vi-	4B-\	-vi-	4e-\	-vi-	4ee-\	-vi-
!LO:LB:g=original	!	!	!	!	!	!	!	!	!	!
=34	=34	=34	=34	=34	=34	=34	=34	=34	=34	=34
!LO:TX:a:t=P:problem=bemol również w poprzednim systemie	!	!	!	!	!	!	!	!	!	!
(>4A-X\	-ta-	.	(>4A-X\	-ta-	(>4c\	-ta-	(>4e-\	-ta-	(<4cc\	-ta-
4F\)	-tem	.	4F\)	.	4d\)	.	4a-\)	.	4f/)	.
*	*	*	*custos:B	*	*custos:d	*	*custos:f	*	*	*
4E-\	.	.	4E-\	-tem	4e-\	-tem	4g,\	-tem	4b-,\	-tem
!	!	!	!LO:LB:g=original	!	!LO:LB:g=original	!	!LO:LB:g=original	!	!LO:LB:g=original	!
=35	=35	=35	=35	=35	=35	=35	=35	=35	=35	=35
2B-\	Ja-	.	2B-\	Ja-	2d\	Ja-	2f\	Ja-	2b-\	Ja-
4BB-/	-cob	.	4BB-/	-cob	4d\	-cob	4f,\	-cob	4b-\	-cob
=36	=36	=36	=36	=36	=36	=36	=36	=36	=36	=36
4B-\	cap-	.	4B-\	Cap-	4F/	ca-	4d\	cap-	4b-\	Cap-
4B-\	-ti-	.	4B-\	-ti-	4F/	-pti-	4d\	-ti-	4b-\	-ti-
4B-\	-vi-	.	4B-\	-vi-	4F/	.	4d\	-vi-	4b-\	-vi-
=37	=37	=37	=37	=37	=37	=37	=37	=37	=37	=37
(>4G\	-ta-	.	(>4G\	-ta-	4G/	-vita-	(>4e-\	-ta-	(<4b-\	-ta-
4F\)	.	.	4F\)	-tem	4A-/	.	4f\)	.	4a-X/)	.
4E-\	-tem	.	4E-\	.	4B-\	-tem	4g\	-tem	4g,/	-tem
=38	=38	=38	=38	=38	=38	=38	=38	=38	=38	=38
4A-X\	Ja-	.	4A-\	Ja-	4c\	.	(>2e-\	Ja-	4f/	Ja-
4B-\	.	.	4B-\	.	2F/	Ja-	.	.	2b-\	.
4BB-/	.	.	4BB-/	.	.	.	4d\)	.	.	.
=39	=39	=39	=39	=39	=39	=39	=39	=39	=39	=39
2.E-\	-cob.	.	2.E-\	-cob.	2.G/	-cob.	2.e-\	-cob.	2.b-\	-cob.
=40||	=40||	=40||	=40||	=40||	=40||	=40||	=40||	=40||	=40||	=40||
*M3/4	*	*	*M3/4	*	*M3/4	*	*M3/4	*	*M3/4	*
4.C/	Glo-	.	4.C/	Glo-	4.e-X\	Glo-	4.g\	Glo-	4.cc\	Glo-
8C/	-ri-	.	8C/	-ri-	8e-\	-ri-	8g\	-ri-	8cc\	-ri-
4C/	-a	.	4C/	-a	4e-\	-a	4g\	-a	4cc\	-a
=41	=41	=41	=41	=41	=41	=41	=41	=41	=41	=41
4E-\	Pa-	.	4E-\	Pa-	4c\	.	4g\	Pa-	4cc\	Pa-
4D\	.	.	4D/	-tri	4d\	Pa-	4f\	-tri	4bn\	-tri
4C/	-tri	.	4C/	.	4e-\	-tri	4g\	et	4cc\	et
=42	=42	=42	=42	=42	=42	=42	=42	=42	=42	=42
4.G\	et	.	4.G\	et	4.d\	et	4.g\	Fi-	4.bn\	Fi-
8G\	Fi-	.	8G\	Fi-	8d\	Fi-	8g\	-li-	8b\	-li-
4G\	-lio	.	4G\	-lio	4d\	-lio	4g\	-o	4b\	-o
!LO:LB:g=original	!	!	!	!	!	!	!	!	!	!
=43	=43	=43	=43	=43	=43	=43	=43	=43	=43	=43
!LO:N:vis=00	!	!	!LO:N:vi=00	!	!	!	!	!	!	!
0.r	.	.	0.r	.	4r	.	4r	.	4r	.
.	.	.	.	.	4G/	et	4g\	et	4bn\	et
.	.	.	.	.	4An/	Spi-	4f#X\	Spi-	4cc\	Spi-
=44	=44	=44	=44	=44	=44	=44	=44	=44	=44	=44
.	.	.	.	.	4.Bn\	-ri-	4.g\	-ri-	4.dd\	-ri-
!	!	!	!	!	!LO:SIC:v:s=8An	!	!	!	!	!
.	.	.	.	.	8A-/	-tu-	8f#X\	-tu-	8cc\	-tu-
.	.	.	.	.	4G/	-i	4g\	-i	4bn\	-i
!	!	!	!	!	!LO:LB:g=original	!	!LO:LB:g=original	!	!LO:LB:g=original	!
=45	=45	=45	=45	=45	=45	=45	=45	=45	=45	=45
.	.	.	.	.	(>4c\	San-	4g\	San-	4ee-\	San-
.	.	.	.	.	4d\)	.	4f\	.	4bn\	.
.	.	.	.	.	4e-X\	.	4e-\	.	4cc\	.
=46	=46	=46	=46	=46	=46	=46	=46	=46	=46	=46
.	.	.	.	.	4f\	.	8a-X\L	.	2cc\	.
.	.	.	.	.	.	.	8d\J	.	.	.
.	.	.	.	.	4g\	.	2dt>\	.	.	.
.	.	.	.	.	4G/	.	.	.	4bn\	.
!	!	!	!LO:LB:g=original	!	!	!	!	!	!	!
=47	=47	=47	=47	=47	=47	=47	=47	=47	=47	=47
4r	.	.	4r	.	4c,\	-cto.	4en,\	-cto.	4cc,\	-cto.
4C/	et	.	4C/	et	4en\	et	4g\	et	4cc\	et
4D/	Spi-	.	4D/	Spi-	4d\	Spi-	4fn\	Spi-	4bn\	Spi-
=48	=48	=48	=48	=48	=48	=48	=48	=48	=48	=48
4.En\	-ritu-	.	4.En\	-ri-	4.c\	-ri-	4.g\	-ri-	4.cc\	-ri-
8D/	-i	.	8D/	-tu-	8d\	-tu-	8f\	-tu-	8bn\	-tu-
4C/	.	.	4C/	-i	4en\	-i	4g\	-i	4cc\	-i
=49	=49	=49	=49	=49	=49	=49	=49	=49	=49	=49
(>4F\	San-	.	4F\	San-	4f\	San-	4a-X\	San-	(>4cc\	San-
4G\	.	.	4G\	.	2e-X\	.	8g\L	.	4b-X\	.
.	.	.	.	.	.	.	8f\J	.	.	.
4A-X\)	.	.	4A-X\	.	.	.	4e-\	.	4cc\)	.
=50	=50	=50	=50	=50	=50	=50	=50	=50	=50	=50
4F\	.	.	4F\	.	8f\L	.	4a-X\	.	8dd\L	.
.	.	.	.	.	8e-\J	.	.	.	8cc\J	.
4G\	.	.	4G\	.	2dt>\	.	2g\	.	(>4cc\	.
4GG/	.	.	4GG/	.	.	.	.	.	4bn\)	.
=51	=51	=51	=51	=51	=51	=51	=51	=51	=51	=51
4C,/	-cto.	.	4C,/	-cto.	4en,\	-cto.	4g,\	-cto.	4cc,\	-cto.
8c\	Si-	.	8c\	Si-	8e-X\	Si-	8g\	Si-	8cc\	Si-
8c\	-cut	.	8c\	-cut	8e-\	-cut	8g\	-cut	8cc\	-cut
8c\	e-	.	8c\	e-	8e-\	e-	8g\	e-	8cc\	e-
8c\	-rat	.	8c\	-rat	8e-\	-rat	8g\	-rat	8cc\	-rat
=52	=52	=52	=52	=52	=52	=52	=52	=52	=52	=52
2A-X\	in	.	2A-X\	in	(>4c\	in	2a-X\	in	(>4ee-X\	in
.	.	.	.	.	4A-X\)	.	.	.	4cc\)	.
*custos:B	*	*	*	*	*	*	*	*	*	*
4F\	prin-	.	4F\	prin-	4c\	prin-	4a-\	prin-	4ee-\	prin-
!LO:LB:g=original	!	!	!	!	!	!	!	!	!	!
=53	=53	=53	=53	=53	=53	=53	=53	=53	=53	=53
4.B-\	-ci-	.	4.B-\	-ci-	4.B-\	-ci-	4.f\	-ci-	4.dd\	-ci-
8A-X\	-pi-	.	8B-\	-pi-	8B-\	-pi-	8f\	-pi-	8dd\	-pi-
*	*	*	*	*	*custos:c	*	*	*	*	*
4G\	-o	.	4G\	-o	4B-\	-o	4g\	-o	4ee-\	-o
!	!	!	!	!	!LO:LB:g=original	!	!	!	!	!
=54	=54	=54	=54	=54	=54	=54	=54	=54	=54	=54
4A-X\	et	.	4A-X\	et	4c\	et	4e-\	et	4ee-\	et
4F\	nunc	.	4F\	nunc	4c\	nunc	4a-X\	nunc	4ee-\	nunc
*	*	*	*	*	*	*	*custos:g	*	*custos:ee	*
4B-\	et	.	4B-\	et	4B-\	et	4a-\	et	4dd\	et
!	!	!	!	!	!	!	!LO:LB:g=original	!	!LO:LB:g=original	!
=55	=55	=55	=55	=55	=55	=55	=55	=55	=55	=55
4G\	sem-	.	4G\	sem-	4B-\	sem-	4g\	sem-	4ee-\	sem-
!	!	!	!	!	!LO:SIC:v:s=4B-	!	!	!	!	!
4F,\	-per	.	4F,\	-per	4c,\	-per	4a-,\	-per	4dd,\	-per
8E-\	et	.	8E-\	et	8B-\	et	8g\	et	8ee-\	et
8E-\	in	.	8E-\	in	8B-\	in	8g\	in	8ee-\	in
!	!	!	!LO:LB:g=original	!	!	!	!	!	!	!
=56	=56	=56	=56	=56	=56	=56	=56	=56	=56	=56
4.B-\	sae-	.	4.B-\	sae-	4.B-\	sae-	8f\L	sae-	8dd\L	sae-
.	.	.	.	.	.	.	8g\J	.	8ee-\J	.
.	.	.	.	.	.	.	8f\	.	8dd\	.
8BB-/	-cu-	.	8B-\	-cu-	8B-\	-cu-	8e-\	-cu-	8cc\	-cu-
4BB-/	-la	.	4B-\	-la	4B-\	-la	(>8d\L	-la	(>8b-\L	-la
.	.	.	.	.	.	.	8g\J)	.	8ee-\J)	.
=57	=57	=57	=57	=57	=57	=57	=57	=57	=57	=57
8B-\	sae-	.	8B-\L	sae-	2.B-T>\	sae-	(>2f\	sae-	[<2.ddt>	sae-
8c\	.	.	8c\	.	.	.	.	.	.	.
(>8B-\	.	.	8B-\	.	.	.	.	.	.	.
8A-X\)	.	.	8A-\	.	.	.	.	.	.	.
8G\	.	.	8G\	.	.	.	8g\L)	.	.	.
8F\	.	.	8F\J	.	.	.	8a-\J	.	.	.
=58	=58	=58	=58	=58	=58	=58	=58	=58	=58	=58
(>8G\	.	.	8G\L	.	(>2Bn\	.	2g\	.	2dd\]	.
!LO:SIC:v:s=8A-	!	!	!	!	!	!	!	!	!	!
8A\)	.	.	(>8A-\	.	.	.	.	.	.	.
8G\	.	.	8G\	.	.	.	.	.	.	.
8F\	.	.	8F\J)	.	.	.	.	.	.	.
8E-\|	-cu-	.	8E-\	.	8c\L)	.	(>8g\L	.	8ee-\L	-cu-
8D\|	.	.	8D\|	-cu-	8Bn\J	-cu-	8f\J)	-cu-	8ff\J	.
!LO:LB:g=original	!	!	!	!	!	!	!	!	!	!
=59	=59	=59	=59	=59	=59	=59	=59	=59	=59	=59
(<4C/	-lo-	.	4C/	-lo-	(>4c\	-lo-	(>4g\	-lo-	4ee-\	-lo-
4D/)	.	.	4D/	.	4Bn\	.	4f\	.	4dd\	.
4E-/	-rum	.	4E-/	.	4c\)	.	4g\)	-rum	4cc\	.
=60	=60	=60	=60	=60	=60	=60	=60	=60	=60	=60
4F\	a-	.	4F,\	-rum	4d,\	-rum	4a-X,\	.	4cc,\	-rum
4G\	.	.	4G\	.	2d\	a-	2g\	a-	(>4cc\	.
4GG/	.	.	4GG/	a-	.	.	.	.	4bn\)	a-
=61	=61	=61	=61	=61	=61	=61	=61	=61	=61	=61
!LO:TX:a:t=P:problem=napis w źródle za kreską na pięciolinii	!	!	!	!	!	!	!	!	!	!
!LO:TX:b:i:t=Rorate Caeli da Capo	!	!	!	!	!	!	!	!	!	!
2.C/	-men.	.	2.C/	-men.	2.en\	-men.	2.g\	-men.	2.cc\	-men.
==	==	==	==	==	==	==	==	==	==	==
*-	*-	*-	*-	*-	*-	*-	*-	*-	*-	*-
!!!system-decoration: [(s1,s2,s3,s4,s5)]
!!!RDF**kern: > = above
!!!RDF**kern: < = below
!!!RDF**kern: | = vertical stroke
!!!EED: Mateusz Mrugas
!!!EEV: 2021-01-21
!!!ENC: Andrzej Borzym
!!!END: 2021-01-20
!!!YEC: Copyright 2022 Narodowy Instytut Fryderyka Chopina (https://polishscores.org)
!!!YEM: License CC-BY-4.0 (https://creativecommons.org/licenses/by/4.0)
